X:1
T:Title
%%score { ( 1 3 ) | 2 }
L:1/8
M:4/4
K:D
V:1 treble nm="Grand Piano"
V:3 treble 
V:2 bass 
V:1
 z4 z2[Q:1/4=100] [FA]>[EG] | F2 FF F2 [EG]2 | [FA]6 [Fd][Ac] | B2 BB A2 AA | %4
 G2 [CA][CG] [DF]2 [DF]>[EG] | [FA]2 [FA]>[FA] [=F^G]2 [^FA]2 | [Fd]6 [Fd]>[Fd] | c2 B>c d2 ^G2 | %8
 [CEA]6 z2 | z4 [FA]4 | z4 [FA]4 | B2 B2 [^Ge]2 [Gd]2 | c2 B2 A2 G2 | F2 [EG]2 [FA]4 | z4 [GB]4 | %15
 e2 B2 c2 A2 |[M:3/4] [Fd]6 |] %17
V:2
 z4 z2 [D,A,]>[D,A,] | [D,A,D]2 [D,A,D][D,A,D] [D,A,D]2 [D,A,]2 | [D,D]6 [D,D][D,D] | %3
 [G,DG]2 [G,DG][G,DG][K:bass] [F,A,D]2 [F,A,D][F,A,D] | %4
 [E,A,C]2 [A,,A,][A,,A,] [D,A,]2 [D,A,]>[D,A,] | [D,D]2 [D,D]>[D,D] [D,D]2 [D,D]2 | %6
 [D,A,]6 [D,A,]>[D,A,] | [E,A,E]2 [E,^G,E]>[E,A,E] [E,B,E]2 [E,DE]2 | A,2 G,2 F,2 E,2 | %9
 D,2 D,2 D,2 D,2 | D,2 D,2 D,2 D,2 | [G,DG]2 [G,B,G]2[K:bass] [E,B,]2 [E,E]2 | %12
 [A,EA]2 [G,CE]2[K:bass] [F,DF]2 [E,A,C]2 | [D,A,D]2 [D,A,]2 [D,D]2 [D,D]2 | %14
 [D,A,]2 [D,D]2 [G,D]2 G,2 | [G,B,G]2 [G,EG]2 [A,EG]2 [A,CG]2 |[M:3/4][K:bass] [D,A,]6 |] %17
V:3
 x8 | x8 | x8 | x8 | x8 | x8 | x8 | x8 | x8 | [A,DF]2 [A,EG]2 A,2 A,2 | [A,DF]2 [A,EG]2 D2 D2 | %11
 x8 | x8 | x8 | [Fd]2 [F^A]2 z2 D2 | x8 |[M:3/4] x6 |] %17

